X:102
T:Paddy O Raferty. RH.102
R:Jig
S:Rev.R.Harrison’s MS,c1815,Cumbria
O:England
A:Temple Sowerby,Cumbria
Z:vmp.Simon Wilson. Review PJH, 2008.
M:6/8
L:1/8
Q:3/8=120
K:A
(A/4B/4c3/2)E EFE|Edc BAB|A/4B/4c3/2E EFE|ABA AFE|\
(A/4B/4c3/2)E EFE|Edc def|ecA BAB|ABA AFE:|!
|:Ace Adf|Ace fdB|Ace fga|ABA AFE|\
Ace Adf|Ace f2g|agf edc|ABA AFE:|!
|:(ac’).c’ (ab).b|(ac’).c’ (ab).b|\
(ac’).c’ (ab).b|aba afe|!
(ac’).c’ (ab).b|(ac’).c’ d’c’d’|\
e’c’a bab|aba afe:|

